X: 1279
T: Bill McGlashan's Schottische
B: australian traditional tunes wiki
M:4/4
L:1/8
R: Schottische
Q: 1/4=100
K:G
V:1 
d|:"G"g2 B2 d2 G>A| B>A G>E D3 E|"D7"D>E F>G A>B c>d|1"C" e2 d2 "D7"d3 d:|2"D" A2"G"G2G3 D||
|:"Em"E>D E>F G>F G>A|"G"(3BAB B>A B2e2|"Em"B2 B>c "B7"B>A G>F|1"Em"E2 E>D E3 D:|2"Em"E2 E>D E3 ||
% abcbook-tune_id 6342d53a5c21d2aa0784c476


% abcbook-boost 0
% abcbook-tablature 
% abcbook-transpose 
% abcbook-lastupdated 1665324357211
% abcbook-soundfonts 
% abcbook-repeats 1
% NFF Book 2018

